Adwaita++/apps/scalable/preferences-autocompletion.svg

<svg height="128" width="128" xmlns="http://www.w3.org/2000/svg" xmlns:xlink="http://www.w3.org/1999/xlink">
  <linearGradient id="e" gradientTransform="matrix(1.0015 0 0 .99993 72.09 56.015)" gradientUnits="userSpaceOnUse" x1="43.844" x2="-60" y1="234" y2="234">
    <stop offset="0" stop-color="#d5d3cf"/>
    <stop offset=".038" stop-color="#e3e2df"/>
    <stop offset=".077" stop-color="#c0bfbc"/>
    <stop offset=".923" stop-color="#c0bfbc"/>
    <stop offset=".962" stop-color="#e3e2df"/>
    <stop offset="1" stop-color="#d5d3cf"/>
  </linearGradient>
  <g transform="translate(0 -172)">
    <rect fill="url(#e)" height="48" rx="8" width="104" x="12" y="240"/>
    <path d="m20 10c-4.432 0-8 3.568-8 8v42 42c0 4.432 3.568 8 8 8h44 44c4.432 0 8-3.568 8-8v-42-42c0-4.432-3.568-8-8-8z" fill="#f6f5f4" transform="translate(0 172)"/>
    <path d="m57.17822 194.96567-29.178219 74.06866h11.054849l10.536473-26.74696h30.403859l10.536458 26.74696h11.05486l-12.159939-30.86185h10.34357l-2.05746 10.28725 10.287329-16.45971-10.287329-16.45974 2.05746 10.28739h-15.205941l-12.15993-30.862zm7.61503 8.72419 11.151296 28.31016h-22.302584z" fill="#5d5d5d" fill-rule="evenodd"/>
  </g>
</svg>

<svg xmlns="http://www.w3.org/2000/svg" xmlns:xlink="http://www.w3.org/1999/xlink" width="128" height="128" version="1.0">
 <defs>
  <linearGradient id="a">
   <stop id="stop2" offset="0" stop-color="#68676b"/>
   <stop id="stop4" offset=".8" stop-color="#424048"/>
   <stop id="stop6" offset="1" stop-color="#241f31"/>
  </linearGradient>
  <radialGradient id="d" cx="279.422" cy="446.483" r="224" fx="279.422" fy="446.483" gradientTransform="matrix(1.34416 .0006 -.00062 1.38763 -121.22 -718.103)" gradientUnits="userSpaceOnUse" xlink:href="#a"/>
  <linearGradient id="e" x1="43.844" x2="-60" y1="234" y2="234" gradientTransform="matrix(1.0015 0 0 .99993 72.09 56.015)" gradientUnits="userSpaceOnUse" xlink:href="#b"/>
  <linearGradient id="b">
   <stop id="stop11" offset="0" stop-color="#d5d3cf"/>
   <stop id="stop13" offset=".038" stop-color="#e3e2df"/>
   <stop id="stop15" offset=".077" stop-color="#c0bfbc"/>
   <stop id="stop17" offset=".923" stop-color="#c0bfbc"/>
   <stop id="stop19" offset=".962" stop-color="#e3e2df"/>
   <stop id="stop21" offset="1" stop-color="#d5d3cf"/>
  </linearGradient>
 </defs>
 <g transform="translate(0 -172)">
  <rect fill="url(#e)" width="104" height="48" x="12" y="240" rx="8" ry="8"/>
  <path style="fill:#f6f5f4" d="M 20 10 C 15.568 10 12 13.568 12 18 L 12 60 L 12 102 C 12 106.432 15.568 110 20 110 L 64 110 L 108 110 C 112.432 110 116 106.432 116 102 L 116 60 L 116 18 C 116 13.568 112.432 10 108 10 L 20 10 z" transform="translate(0,172)"/>
  <path style="fill:#5d5d5d;fill-rule:evenodd" d="M 57.17822,194.96567 28.000001,269.03433 H 39.05485 L 49.591323,242.28737 H 79.995182 L 90.53164,269.03433 H 101.5865 L 89.426561,238.17248 h 10.34357 L 97.712671,248.45973 108,232.00002 97.712671,215.54028 l 2.05746,10.28739 H 84.56419 l -12.15993,-30.862 z m 7.61503,8.72419 11.151296,28.31016 H 53.641962 Z"/>
 </g>
</svg>
